Sources/FrostedUI/Resources/Icons.xcassets/edit12.imageset/edit-12.svg

<svg width="12" height="12" viewBox="0 0 12 12" fill="none" xmlns="http://www.w3.org/2000/svg" data-fui-icon="true">
  <path
    d="M4.25 0C4.66421 0 5 0.335786 5 0.75C5 1.16421 4.66421 1.5 4.25 1.5H3.25C2.2835 1.5 1.5 2.2835 1.5 3.25V8.75C1.5 9.7165 2.2835 10.5 3.25 10.5H8.75C9.7165 10.5 10.5 9.7165 10.5 8.75V7.75C10.5 7.33579 10.8358 7 11.25 7C11.6642 7 12 7.33579 12 7.75V8.75C12 10.5449 10.5449 12 8.75 12H3.25C1.45507 12 0 10.5449 0 8.75V3.25C4.02666e-09 1.45507 1.45507 3.22128e-08 3.25 0H4.25ZM9.4375 0C10.0766 8.93376e-06 10.6897 0.254173 11.1416 0.706055L11.2939 0.858398C11.7459 1.31031 12 1.92337 12 2.5625C12 3.20158 11.7458 3.8147 11.2939 4.2666L7.28027 8.28027C7.13962 8.42091 6.9489 8.5 6.75 8.5H4.25C3.83581 8.5 3.50003 8.16419 3.5 7.75V5.25C3.5 5.0511 3.57909 4.86038 3.71973 4.71973L7.7334 0.706055C8.18533 0.254122 8.79837 0 9.4375 0ZM5 5.56055V7H6.43945L8.5332 4.90625L7.09375 3.4668L5 5.56055ZM9.4375 1.5C9.1962 1.5 8.96457 1.59597 8.79395 1.7666L8.1543 2.40625L9.59375 3.8457L10.2334 3.20605C10.404 3.03546 10.5 2.80376 10.5 2.5625C10.5 2.32122 10.404 2.08955 10.2334 1.91895L10.0811 1.7666C9.91044 1.596 9.67878 1.50001 9.4375 1.5Z"
    fill="currentColor"
  />
</svg>

<svg xmlns="http://www.w3.org/2000/svg" width="12" height="12" fill="none" data-fui-icon="true" viewBox="0 0 12 12"><path fill="currentColor" d="M4.25 0a.75.75 0 0 1 0 1.5h-1A1.75 1.75 0 0 0 1.5 3.25v5.5c0 .966.784 1.75 1.75 1.75h5.5a1.75 1.75 0 0 0 1.75-1.75v-1a.75.75 0 0 1 1.5 0v1A3.25 3.25 0 0 1 8.75 12h-5.5A3.25 3.25 0 0 1 0 8.75v-5.5A3.25 3.25 0 0 1 3.25 0zm5.188 0c.639 0 1.252.254 1.704.706l.152.152a2.41 2.41 0 0 1 0 3.409L7.28 8.28a.75.75 0 0 1-.53.22h-2.5a.75.75 0 0 1-.75-.75v-2.5c0-.199.08-.39.22-.53L7.733.706A2.4 2.4 0 0 1 9.438 0M5 5.56V7h1.44l2.093-2.094-1.44-1.44zM9.438 1.5a.9.9 0 0 0-.644.267l-.64.64 1.44 1.439.64-.64a.91.91 0 0 0 0-1.287l-.153-.152a.9.9 0 0 0-.643-.267"/></svg>
